; generated by Slic3r 1.2.9 on 2018-05-04 at 14:08:57

; external perimeters extrusion width = 0.40mm
; perimeters extrusion width = 0.67mm
; infill extrusion width = 0.67mm
; solid infill extrusion width = 0.67mm
; top infill extrusion width = 0.67mm

M107
M190 S50 ; set bed temperature
M104 S200 ; set temperature
G28 ; home all axes
G1 Z5 F5000 ; lift nozzle

M109 S200 ; wait for temperature to be reached
G21 ; set units to millimeters
G90 ; use absolute coordinates
M82 ; use absolute distances for extrusion
G92 E0
G1 Z0.300 F6000.000
G1 E-2.00000 F2400.00000
G92 E0
G1 X81.473 Y77.589 F6000.000
G1 E2.00000 F2400.00000
G1 X83.241 Y76.011 E2.15833 F3000.000
G1 X85.431 Y75.105 E2.31666
G1 X87.000 Y74.929 E2.42216
G1 X103.000 Y74.929 E3.49104
G1 X105.337 Y75.326 E3.64937
G1 X107.411 Y76.473 E3.80770 F3000.000
G1 X108.989 Y78.241 E3.96603
G1 X109.895 Y80.431 E4.12436
G1 X110.071 Y82.000 E4.22986
G1 X110.071 Y112.000 E6.23402
G1 X109.674 Y114.337 E6.39235
G1 X108.527 Y116.411 E6.55068
G1 X106.759 Y117.989 E6.70901
G1 X104.569 Y118.895 E6.86734
G1 X103.000 Y119.071 E6.97284
G1 X87.000 Y119.071 E8.04173
G1 X84.663 Y118.674 E8.20006
G1 X82.589 Y117.527 E8.35839
G1 X81.011 Y115.759 E8.51672
G1 X80.105 Y113.569 E8.67505
G1 X79.929 Y112.000 E8.78054
G1 X79.929 Y82.000 E10.78470
G1 X80.326 Y79.663 E10.94303
G1 X81.444 Y77.642 E11.09736
G1 X81.956 Y77.870 F6000.000
G1 X82.004 Y77.787 E11.10377 F3000.000
G1 X83.753 Y76.328 E11.25594
G1 X87.000 Y75.464 E11.48037
G1 X103.000 Y75.464 E12.54925
G1 X105.243 Y75.861 E12.70142
G1 X107.213 Y77.004 E12.85360 F3000.000
G1 X108.672 Y78.753 E13.00577
G1 X109.536 Y82.000 E13.23020
G1 X109.536 Y112.000 E15.23436
G1 X109.139 Y114.243 E15.38653
G1 X107.996 Y116.213 E15.53870
G1 X106.247 Y117.672 E15.69087
G1 X103.000 Y118.536 E15.91530
G1 X87.000 Y118.536 E16.98419
G1 X84.757 Y118.139 E17.13636
G1 X82.787 Y116.996 E17.28853
G1 X81.328 Y115.247 E17.44070
G1 X80.464 Y112.000 E17.66513
G1 X80.464 Y82.000 E19.66929
G1 X80.861 Y79.757 E19.82146
G1 X81.926 Y77.921 E19.96322
G1 E17.96322 F2400.00000
G92 E0
G1 X101.836 Y110.836 F6000.000
G1 E2.00000 F2400.00000
G1 X88.164 Y110.836 E2.91331 F3000.000
G1 X88.164 Y83.164 E4.76190
G1 X101.836 Y83.164 E5.67521
G1 X101.836 Y110.776 E7.51979
G1 X101.300 Y110.300 F6000.000
G1 X88.700 Y110.300 E8.36154 F3000.000
G1 X88.700 Y83.700 E10.13857
G1 X101.300 Y83.700 E10.98031
G1 X101.300 Y110.240 E12.75333
G1 X101.300 Y110.700 F6000.000
G1 X102.164 Y111.164 F6000.000
G1 X87.836 Y111.164 E13.71057 F3000.000
G1 X87.836 Y82.836 E15.60308
G1 X102.164 Y82.836 E16.56032
G1 X102.164 Y111.104 E18.44883
G1 X102.700 Y111.700 F6000.000
G1 X87.300 Y111.700 E19.47763 F3000.000
G1 X87.300 Y82.300 E21.44171
G1 X102.700 Y82.300 E22.47051
G1 X102.700 Y111.640 E24.43058
G1 X102.354 Y111.500 F6000.000
M104 S190 ; set temperature
G1 Z0.500 F6000.000
G1 X101.693 Y110.693 F6000.000
G1 X88.307 Y110.693 E25.12990 F3600.000
G1 X88.307 Y83.307 E26.56065
G1 X101.693 Y83.307 E27.25997
G1 X101.693 Y110.633 E28.68758
G1 X101.200 Y110.200 F6000.000
G1 X88.800 Y110.200 E29.05575 F1800.000
G1 X88.800 Y83.800 E29.83960
G1 X101.200 Y83.800 E30.20778
G1 X101.200 Y110.140 E30.98985
G1 X101.200 Y110.600 F6000.000
G1 X102.307 Y111.307 F6000.000
G1 X87.693 Y111.307 E31.75338 F3600.000
G1 X87.693 Y82.693 E33.24835
G1 X102.307 Y82.693 E34.01189
G1 X102.307 Y111.247 E35.50372
G1 X102.800 Y111.800 F6000.000
G1 X87.200 Y111.800 E35.96691 F1800.000
G1 X87.200 Y82.200 E36.84577
G1 X102.800 Y82.200 E37.30895
G1 X102.800 Y111.740 E38.18603
G1 X102.454 Y111.600 F6000.000
G1 Z0.700 F6000.000
G1 X101.693 Y110.693 F6000.000
G1 X88.307 Y110.693 E38.88535 F3600.000
G1 X88.307 Y83.307 E40.31610
G1 X101.693 Y83.307 E41.01542
G1 X101.693 Y110.633 E42.44303
G1 X101.200 Y110.200 F6000.000
G1 X88.800 Y110.200 E42.81120 F1800.000
G1 X88.800 Y83.800 E43.59505
G1 X101.200 Y83.800 E43.96323
G1 X101.200 Y110.140 E44.74529
G1 X101.200 Y110.600 F6000.000
G1 X102.307 Y111.307 F6000.000
G1 X87.693 Y111.307 E45.50883 F3600.000
G1 X87.693 Y82.693 E47.00380
G1 X102.307 Y82.693 E47.76734
G1 X102.307 Y111.247 E49.25917
G1 X102.800 Y111.800 F6000.000
G1 X87.200 Y111.800 E49.72236 F1800.000
G1 X87.200 Y82.200 E50.60122
G1 X102.800 Y82.200 E51.06440
G1 X102.800 Y111.740 E51.94148
G1 X102.454 Y111.600 F6000.000
M106 S242.25
G1 Z0.900 F6000.000
G1 X101.693 Y110.693 F6000.000
G1 X88.307 Y110.693 E52.64080 F3600.000
G1 X88.307 Y83.307 E54.07155
G1 X101.693 Y83.307 E54.77087
G1 X101.693 Y110.633 E56.19848
G1 X101.200 Y110.200 F6000.000
G1 X88.800 Y110.200 E56.56665 F1800.000
G1 X88.800 Y83.800 E57.35050
G1 X101.200 Y83.800 E57.71867
G1 X101.200 Y110.140 E58.50074
G1 X101.200 Y110.600 F6000.000
G1 X102.307 Y111.307 F6000.000
G1 X87.693 Y111.307 E59.26428 F3600.000
G1 X87.693 Y82.693 E60.75925
G1 X102.307 Y82.693 E61.52279
G1 X102.307 Y111.247 E63.01462
G1 X102.800 Y111.800 F6000.000
G1 X87.200 Y111.800 E63.47780 F1800.000
G1 X87.200 Y82.200 E64.35667
G1 X102.800 Y82.200 E64.81985
G1 X102.800 Y111.740 E65.69693
G1 X102.454 Y111.600 F6000.000
G1 Z1.100 F6000.000
G1 X101.693 Y110.693 F6000.000
G1 X88.307 Y110.693 E66.39625 F3600.000
G1 X88.307 Y83.307 E67.82700
G1 X101.693 Y83.307 E68.52632
G1 X101.693 Y110.633 E69.95393
G1 X101.200 Y110.200 F6000.000
G1 X88.800 Y110.200 E70.32210 F1800.000
G1 X88.800 Y83.800 E71.10595
G1 X101.200 Y83.800 E71.47412
G1 X101.200 Y110.140 E72.25619
G1 X101.200 Y110.600 F6000.000
G1 X102.307 Y111.307 F6000.000
G1 X87.693 Y111.307 E73.01973 F3600.000
G1 X87.693 Y82.693 E74.51470
G1 X102.307 Y82.693 E75.27824
G1 X102.307 Y111.247 E76.77007
G1 X102.800 Y111.800 F6000.000
G1 X87.200 Y111.800 E77.23325 F1800.000
G1 X87.200 Y82.200 E78.11212
G1 X102.800 Y82.200 E78.57530
G1 X102.800 Y111.740 E79.45238
G1 X102.454 Y111.600 F6000.000
G1 Z1.300 F6000.000
G1 X101.693 Y110.693 F6000.000
G1 X88.307 Y110.693 E80.15170 F3600.000
G1 X88.307 Y83.307 E81.58245
G1 X101.693 Y83.307 E82.28177
G1 X101.693 Y110.633 E83.70938
G1 X101.200 Y110.200 F6000.000
G1 X88.800 Y110.200 E84.07755 F1800.000
G1 X88.800 Y83.800 E84.86140
G1 X101.200 Y83.800 E85.22957
G1 X101.200 Y110.140 E86.01164
G1 X101.200 Y110.600 F6000.000
G1 X102.307 Y111.307 F6000.000
G1 X87.693 Y111.307 E86.77518 F3600.000
G1 X87.693 Y82.693 E88.27015
G1 X102.307 Y82.693 E89.03369
G1 X102.307 Y111.247 E90.52552
G1 X102.800 Y111.800 F6000.000
G1 X87.200 Y111.800 E90.98870 F1800.000
G1 X87.200 Y82.200 E91.86756
G1 X102.800 Y82.200 E92.33075
G1 X102.800 Y111.740 E93.20783
G1 X102.454 Y111.600 F6000.000
G1 Z1.500 F6000.000
G1 X101.693 Y110.693 F6000.000
G1 X88.307 Y110.693 E93.90715 F3600.000
G1 X88.307 Y83.307 E95.33790
G1 X101.693 Y83.307 E96.03721
G1 X101.693 Y110.633 E97.46483
G1 X101.200 Y110.200 F6000.000
G1 X88.800 Y110.200 E97.83300 F1800.000
G1 X88.800 Y83.800 E98.61685
G1 X101.200 Y83.800 E98.98502
G1 X101.200 Y110.140 E99.76709
G1 X101.200 Y110.600 F6000.000
G1 X102.307 Y111.307 F6000.000
G1 X87.693 Y111.307 E100.53063 F3600.000
G1 X87.693 Y82.693 E102.02560
G1 X102.307 Y82.693 E102.78913
G1 X102.307 Y111.247 E104.28097
G1 X102.800 Y111.800 F6000.000
G1 X87.200 Y111.800 E104.74415 F1800.000
G1 X87.200 Y82.200 E105.62301
G1 X102.800 Y82.200 E106.08620
G1 X102.800 Y111.740 E106.96328
G1 X102.454 Y111.600 F6000.000
G1 Z1.700 F6000.000
G1 X101.693 Y110.693 F6000.000
G1 X88.307 Y110.693 E107.66260 F3600.000
G1 X88.307 Y83.307 E109.09334
G1 X101.693 Y83.307 E109.79266
G1 X101.693 Y110.633 E111.22028
G1 X101.200 Y110.200 F6000.000
G1 X88.800 Y110.200 E111.58845 F1800.000
G1 X88.800 Y83.800 E112.37230
G1 X101.200 Y83.800 E112.74047
G1 X101.200 Y110.140 E113.52254
G1 X101.200 Y110.600 F6000.000
G1 X102.307 Y111.307 F6000.000
G1 X87.693 Y111.307 E114.28608 F3600.000
G1 X87.693 Y82.693 E115.78104
G1 X102.307 Y82.693 E116.54458
G1 X102.307 Y111.247 E118.03642
G1 X102.800 Y111.800 F6000.000
G1 X87.200 Y111.800 E118.49960 F1800.000
G1 X87.200 Y82.200 E119.37846
G1 X102.800 Y82.200 E119.84165
G1 X102.800 Y111.740 E120.71873
G1 X102.454 Y111.600 F6000.000
G1 Z1.900 F6000.000
G1 X101.693 Y110.693 F6000.000
G1 X88.307 Y110.693 E121.41805 F3600.000
G1 X88.307 Y83.307 E122.84879
G1 X101.693 Y83.307 E123.54811
G1 X101.693 Y110.633 E124.97573
G1 X101.200 Y110.200 F6000.000
G1 X88.800 Y110.200 E125.34390 F1800.000
G1 X88.800 Y83.800 E126.12775
G1 X101.200 Y83.800 E126.49592
G1 X101.200 Y110.140 E127.27799
G1 X101.200 Y110.600 F6000.000
G1 X102.307 Y111.307 F6000.000
G1 X87.693 Y111.307 E128.04153 F3600.000
G1 X87.693 Y82.693 E129.53649
G1 X102.307 Y82.693 E130.30003
G1 X102.307 Y111.247 E131.79186
G1 X102.800 Y111.800 F6000.000
G1 X87.200 Y111.800 E132.25505 F1800.000
G1 X87.200 Y82.200 E133.13391
G1 X102.800 Y82.200 E133.59710
G1 X102.800 Y111.740 E134.47418
G1 X102.454 Y111.600 F6000.000
G1 Z2.100 F6000.000
G1 X101.693 Y110.693 F6000.000
G1 X88.307 Y110.693 E135.17349 F3600.000
G1 X88.307 Y83.307 E136.60424
G1 X101.693 Y83.307 E137.30356
G1 X101.693 Y110.633 E138.73117
G1 X101.200 Y110.200 F6000.000
G1 X88.800 Y110.200 E139.09935 F1800.000
G1 X88.800 Y83.800 E139.88320
G1 X101.200 Y83.800 E140.25137
G1 X101.200 Y110.140 E141.03344
G1 X101.200 Y110.600 F6000.000
G1 X102.307 Y111.307 F6000.000
G1 X87.693 Y111.307 E141.79698 F3600.000
G1 X87.693 Y82.693 E143.29194
G1 X102.307 Y82.693 E144.05548
G1 X102.307 Y111.247 E145.54731
G1 X102.800 Y111.800 F6000.000
G1 X87.200 Y111.800 E146.01050 F1800.000
G1 X87.200 Y82.200 E146.88936
G1 X102.800 Y82.200 E147.35254
G1 X102.800 Y111.740 E148.22962
G1 X102.454 Y111.600 F6000.000
G1 Z2.300 F6000.000
G1 X101.693 Y110.693 F6000.000
G1 X88.307 Y110.693 E148.92894 F3600.000
G1 X88.307 Y83.307 E150.35969
G1 X101.693 Y83.307 E151.05901
G1 X101.693 Y110.633 E152.48662
G1 X101.200 Y110.200 F6000.000
G1 X88.800 Y110.200 E152.85480 F1800.000
G1 X88.800 Y83.800 E153.63865
G1 X101.200 Y83.800 E154.00682
G1 X101.200 Y110.140 E154.78889
G1 X101.200 Y110.600 F6000.000
G1 X102.307 Y111.307 F6000.000
G1 X87.693 Y111.307 E155.55242 F3600.000
G1 X87.693 Y82.693 E157.04739
G1 X102.307 Y82.693 E157.81093
G1 X102.307 Y111.247 E159.30276
G1 X102.800 Y111.800 F6000.000
G1 X87.200 Y111.800 E159.76595 F1800.000
G1 X87.200 Y82.200 E160.64481
G1 X102.800 Y82.200 E161.10799
G1 X102.800 Y111.740 E161.98507
G1 X102.454 Y111.600 F6000.000
G1 Z2.500 F6000.000
G1 X101.693 Y110.693 F6000.000
G1 X88.307 Y110.693 E162.68439 F3600.000
G1 X88.307 Y83.307 E164.11514
G1 X101.693 Y83.307 E164.81446
G1 X101.693 Y110.633 E166.24207
G1 X101.200 Y110.200 F6000.000
G1 X88.800 Y110.200 E166.61024 F1800.000
G1 X88.800 Y83.800 E167.39409
G1 X101.200 Y83.800 E167.76227
G1 X101.200 Y110.140 E168.54434
G1 X101.200 Y110.600 F6000.000
G1 X102.307 Y111.307 F6000.000
G1 X87.693 Y111.307 E169.30787 F3600.000
G1 X87.693 Y82.693 E170.80284
G1 X102.307 Y82.693 E171.56638
G1 X102.307 Y111.247 E173.05821
G1 X102.800 Y111.800 F6000.000
G1 X87.200 Y111.800 E173.52140 F1800.000
G1 X87.200 Y82.200 E174.40026
G1 X102.800 Y82.200 E174.86344
G1 X102.800 Y111.740 E175.74052
G1 X102.454 Y111.600 F6000.000
G1 Z2.700 F6000.000
G1 X101.693 Y110.693 F6000.000
G1 X88.307 Y110.693 E176.43984 F3600.000
G1 X88.307 Y83.307 E177.87059
G1 X101.693 Y83.307 E178.56991
G1 X101.693 Y110.633 E179.99752
G1 X101.200 Y110.200 F6000.000
G1 X88.800 Y110.200 E180.36569 F1800.000
G1 X88.800 Y83.800 E181.14954
G1 X101.200 Y83.800 E181.51772
G1 X101.200 Y110.140 E182.29978
G1 X101.200 Y110.600 F6000.000
G1 X102.307 Y111.307 F6000.000
G1 X87.693 Y111.307 E183.06332 F3600.000
G1 X87.693 Y82.693 E184.55829
G1 X102.307 Y82.693 E185.32183
G1 X102.307 Y111.247 E186.81366
G1 X102.800 Y111.800 F6000.000
G1 X87.200 Y111.800 E187.27684 F1800.000
G1 X87.200 Y82.200 E188.15571
G1 X102.800 Y82.200 E188.61889
G1 X102.800 Y111.740 E189.49597
G1 X102.454 Y111.600 F6000.000
G1 Z2.900 F6000.000
G1 X101.693 Y110.693 F6000.000
G1 X88.307 Y110.693 E190.19529 F3600.000
G1 X88.307 Y83.307 E191.62604
G1 X101.693 Y83.307 E192.32536
G1 X101.693 Y110.633 E193.75297
G1 X101.200 Y110.200 F6000.000
G1 X88.800 Y110.200 E194.12114 F1800.000
G1 X88.800 Y83.800 E194.90499
G1 X101.200 Y83.800 E195.27316
G1 X101.200 Y110.140 E196.05523
G1 X101.200 Y110.600 F6000.000
G1 X102.307 Y111.307 F6000.000
G1 X87.693 Y111.307 E196.81877 F3600.000
G1 X87.693 Y82.693 E198.31374
G1 X102.307 Y82.693 E199.07728
G1 X102.307 Y111.247 E200.56911
G1 X102.800 Y111.800 F6000.000
G1 X87.200 Y111.800 E201.03229 F1800.000
G1 X87.200 Y82.200 E201.91116
G1 X102.800 Y82.200 E202.37434
G1 X102.800 Y111.740 E203.25142
G1 X102.454 Y111.600 F6000.000
G1 Z3.100 F6000.000
G1 X101.693 Y110.693 F6000.000
G1 X88.307 Y110.693 E203.95074 F3600.000
G1 X88.307 Y83.307 E205.38149
G1 X101.693 Y83.307 E206.08081
G1 X101.693 Y110.633 E207.50842
G1 X101.200 Y110.200 F6000.000
G1 X88.800 Y110.200 E207.87659 F1800.000
G1 X88.800 Y83.800 E208.66044
G1 X101.200 Y83.800 E209.02861
G1 X101.200 Y110.140 E209.81068
G1 X101.200 Y110.600 F6000.000
G1 X102.307 Y111.307 F6000.000
G1 X87.693 Y111.307 E210.57422 F3600.000
G1 X87.693 Y82.693 E212.06919
G1 X102.307 Y82.693 E212.83273
G1 X102.307 Y111.247 E214.32456
G1 X102.800 Y111.800 F6000.000
G1 X87.200 Y111.800 E214.78774 F1800.000
G1 X87.200 Y82.200 E215.66660
G1 X102.800 Y82.200 E216.12979
G1 X102.800 Y111.740 E217.00687
G1 X102.454 Y111.600 F6000.000
G1 Z3.300 F6000.000
G1 X101.693 Y110.693 F6000.000
G1 X88.307 Y110.693 E217.70619 F3600.000
G1 X88.307 Y83.307 E219.13694
G1 X101.693 Y83.307 E219.83625
G1 X101.693 Y110.633 E221.26387
G1 X101.200 Y110.200 F6000.000
G1 X88.800 Y110.200 E221.63204 F1800.000
G1 X88.800 Y83.800 E222.41589
G1 X101.200 Y83.800 E222.78406
G1 X101.200 Y110.140 E223.56613
G1 X101.200 Y110.600 F6000.000
G1 X102.307 Y111.307 F6000.000
G1 X87.693 Y111.307 E224.32967 F3600.000
G1 X87.693 Y82.693 E225.82464
G1 X102.307 Y82.693 E226.58817
G1 X102.307 Y111.247 E228.08001
G1 X102.800 Y111.800 F6000.000
G1 X87.200 Y111.800 E228.54319 F1800.000
G1 X87.200 Y82.200 E229.42205
G1 X102.800 Y82.200 E229.88524
G1 X102.800 Y111.740 E230.76232
G1 X102.454 Y111.600 F6000.000
G1 Z3.500 F6000.000
G1 X101.693 Y110.693 F6000.000
G1 X88.307 Y110.693 E231.46164 F3600.000
G1 X88.307 Y83.307 E232.89238
G1 X101.693 Y83.307 E233.59170
G1 X101.693 Y110.633 E235.01932
G1 X101.200 Y110.200 F6000.000
G1 X88.800 Y110.200 E235.38749 F1800.000
G1 X88.800 Y83.800 E236.17134
G1 X101.200 Y83.800 E236.53951
G1 X101.200 Y110.140 E237.32158
G1 X101.200 Y110.600 F6000.000
G1 X102.307 Y111.307 F6000.000
G1 X87.693 Y111.307 E238.08512 F3600.000
G1 X87.693 Y82.693 E239.58009
G1 X102.307 Y82.693 E240.34362
G1 X102.307 Y111.247 E241.83546
G1 X102.800 Y111.800 F6000.000
G1 X87.200 Y111.800 E242.29864 F1800.000
G1 X87.200 Y82.200 E243.17750
G1 X102.800 Y82.200 E243.64069
G1 X102.800 Y111.740 E244.51777
G1 X102.454 Y111.600 F6000.000
G1 Z3.700 F6000.000
G1 X101.693 Y110.693 F6000.000
G1 X88.307 Y110.693 E245.21709 F3600.000
G1 X88.307 Y83.307 E246.64783
G1 X101.693 Y83.307 E247.34715
G1 X101.693 Y110.633 E248.77477
G1 X101.200 Y110.200 F6000.000
G1 X88.800 Y110.200 E249.14294 F1800.000
G1 X88.800 Y83.800 E249.92679
G1 X101.200 Y83.800 E250.29496
G1 X101.200 Y110.140 E251.07703
G1 X101.200 Y110.600 F6000.000
G1 X102.307 Y111.307 F6000.000
G1 X87.693 Y111.307 E251.84057 F3600.000
G1 X87.693 Y82.693 E253.33553
G1 X102.307 Y82.693 E254.09907
G1 X102.307 Y111.247 E255.59090
G1 X102.800 Y111.800 F6000.000
G1 X87.200 Y111.800 E256.05409 F1800.000
G1 X87.200 Y82.200 E256.93295
G1 X102.800 Y82.200 E257.39614
G1 X102.800 Y111.740 E258.27322
G1 X102.454 Y111.600 F6000.000
G1 Z3.900 F6000.000
G1 X101.693 Y110.693 F6000.000
G1 X88.307 Y110.693 E258.97254 F3600.000
G1 X88.307 Y83.307 E260.40328
G1 X101.693 Y83.307 E261.10260
G1 X101.693 Y110.633 E262.53021
G1 X101.200 Y110.200 F6000.000
G1 X88.800 Y110.200 E262.89839 F1800.000
G1 X88.800 Y83.800 E263.68224
G1 X101.200 Y83.800 E264.05041
G1 X101.200 Y110.140 E264.83248
G1 X101.200 Y110.600 F6000.000
G1 X102.307 Y111.307 F6000.000
G1 X87.693 Y111.307 E265.59602 F3600.000
G1 X87.693 Y82.693 E267.09098
G1 X102.307 Y82.693 E267.85452
G1 X102.307 Y111.247 E269.34635
G1 X102.800 Y111.800 F6000.000
G1 X87.200 Y111.800 E269.80954 F1800.000
G1 X87.200 Y82.200 E270.68840
