; generated by Slic3r 1.2.9 on 2018-05-04 at 10:49:27

; external perimeters extrusion width = 0.40mm
; perimeters extrusion width = 0.67mm
; infill extrusion width = 0.67mm
; solid infill extrusion width = 0.67mm
; top infill extrusion width = 0.67mm

M107
M190 S50 ; set bed temperature
M104 S200 ; set temperature
G28 ; home all axes
G1 Z5 F5000 ; lift nozzle

M109 S200 ; wait for temperature to be reached
G21 ; set units to millimeters
G90 ; use absolute coordinates
M82 ; use absolute distances for extrusion
G92 E0
G1 Z0.300 F6000.000
G1 E-2.00000 F2400.00000
G92 E0
G1 X86.973 Y59.589 F6000.000
G1 E2.00000 F2400.00000
G1 X88.741 Y58.011 E2.15833 F3000.000
G1 X89.993 Y57.388 E2.25180
G1 X98.054 Y54.338 E2.82756
G1 X99.597 Y53.986 E2.93328
G1 X100.500 Y53.929 E2.99373
G1 X107.000 Y53.929 E3.42796
G1 X107.791 Y53.973 E3.48092
G1 X107.904 Y53.986 E3.48851 F3000.000
G1 X109.553 Y54.375 E3.60165
G1 X111.074 Y55.122 E3.71490
G1 X112.391 Y56.188 E3.82808
G1 X113.378 Y57.426 E3.93386
G1 X114.125 Y58.947 E4.04707
G1 X114.514 Y60.597 E4.16030
G1 X114.571 Y61.500 E4.22074
G1 X114.571 Y138.500 E9.36476
G1 X114.527 Y139.292 E9.41774
G1 X114.162 Y140.947 E9.53094
G1 X114.125 Y141.052 E9.53842
G1 X113.438 Y142.479 E9.64423
G1 X112.391 Y143.812 E9.75741
G1 X112.311 Y143.891 E9.76496
G1 X110.979 Y144.938 E9.87811
G1 X109.446 Y145.662 E9.99139
G1 X107.904 Y146.014 E10.09710
G1 X107.000 Y146.071 E10.15758
G1 X100.500 Y146.071 E10.59182
G1 X99.595 Y146.014 E10.65242
G1 X98.054 Y145.662 E10.75799
G1 X89.993 Y142.612 E11.33375
G1 X87.949 Y141.412 E11.49208
G1 X86.417 Y139.605 E11.65041
G1 X85.567 Y137.392 E11.80874
G1 X85.429 Y136.000 E11.90221
G1 X85.429 Y64.000 E16.71220
G1 X85.826 Y61.663 E16.87053
G1 X86.944 Y59.642 E17.02485
G1 X87.456 Y59.870 F6000.000
G1 X87.504 Y59.787 E17.03126 F3000.000
G1 X90.183 Y57.889 E17.25060
G1 X98.231 Y54.843 E17.82543
G1 X99.657 Y54.518 E17.92315
G1 X100.500 Y54.464 E17.97958
G1 X107.000 Y54.464 E18.41382
G1 X107.732 Y54.505 E18.46277
G1 X107.844 Y54.518 E18.47035 F3000.000
G1 X109.376 Y54.881 E18.57548
G1 X110.789 Y55.576 E18.68071
G1 X112.012 Y56.567 E18.78588
G1 X112.980 Y57.799 E18.89053
G1 X113.619 Y59.124 E18.98886
G1 X113.982 Y60.657 E19.09407
G1 X114.036 Y61.500 E19.15050
G1 X114.036 Y138.500 E24.29452
G1 X113.995 Y139.232 E24.34348
G1 X113.656 Y140.770 E24.44868
G1 X113.619 Y140.875 E24.45616
G1 X112.984 Y142.194 E24.55395
G1 X112.013 Y143.433 E24.65912
G1 X111.933 Y143.513 E24.66666
G1 X110.694 Y144.484 E24.77181
G1 X109.269 Y145.156 E24.87707
G1 X107.843 Y145.482 E24.97477
G1 X107.000 Y145.536 E25.03124
G1 X100.500 Y145.536 E25.46547
G1 X99.655 Y145.482 E25.52205
G1 X98.123 Y145.119 E25.62721
G1 X90.183 Y142.111 E26.19441
G1 X88.227 Y140.945 E26.34658
G1 X86.789 Y139.178 E26.49876
G1 X85.964 Y136.000 E26.71810
G1 X85.964 Y64.000 E31.52809
G1 X86.361 Y61.757 E31.68026
G1 X87.426 Y59.921 E31.82202
G1 E29.82202 F2400.00000
G92 E0
G1 X101.365 Y134.629 F6000.000
G1 E2.00000 F2400.00000
G1 X93.871 Y134.629 E2.50060 F3000.000
G1 X93.871 Y65.371 E7.12738
G1 X101.371 Y65.371 E7.62842
G1 X101.371 Y62.373 E7.82873
G1 X106.129 Y62.381 E8.14656
G1 X106.129 Y137.629 E13.17351
G1 X101.379 Y137.629 E13.49082
G1 X101.365 Y134.689 E13.68723
G1 X100.832 Y135.164 F6000.000
G1 X93.336 Y135.164 E14.18800 F3000.000
G1 X93.336 Y64.836 E18.88634
G1 X100.836 Y64.836 E19.38738
G1 X100.836 Y61.836 E19.58776
G1 X106.664 Y61.846 E19.97715
G1 X106.664 Y138.164 E25.07560
G1 X100.846 Y138.164 E25.46430
G1 X100.832 Y135.224 E25.66071
G1 X100.299 Y135.700 F6000.000
G1 X92.800 Y135.700 E26.16166 F3000.000
G1 X92.800 Y64.300 E30.93156
G1 X100.300 Y64.300 E31.43260
G1 X100.300 Y61.517 E31.61853
G1 X100.309 Y61.439 E31.62378
G1 X100.409 Y61.312 E31.63456
G1 X107.090 Y61.312 E32.08090
G1 X107.178 Y61.414 E32.08994
G1 X107.200 Y61.517 E32.09696
G1 X107.191 Y138.561 E37.24394
G1 X107.091 Y138.688 E37.25472
G1 X106.983 Y138.700 E37.26198
G1 X100.533 Y138.700 E37.69287
G1 X100.395 Y138.669 E37.70234
G1 X100.312 Y138.567 E37.71113
G1 X100.299 Y135.760 E37.89863
G1 X100.298 Y135.300 F6000.000
G1 X101.691 Y135.469 F6000.000
G1 X103.529 Y137.307 E38.07251 F3000.000
G1 X102.770 Y137.307 E38.12326
G1 X101.695 Y136.232 E38.22502
G1 X101.698 Y136.994 E38.27602
G1 X102.012 Y137.307 E38.30566
G1 X101.687 Y134.707 F6000.000
G1 X104.287 Y137.307 E38.55165 F3000.000
G1 X105.046 Y137.307 E38.60241
G1 X94.193 Y126.454 E39.62925
G1 X94.193 Y125.696 E39.68000
G1 X105.786 Y137.288 E40.77685
G1 X105.807 Y136.551 E40.82619
G1 X94.193 Y124.937 E41.92506
G1 X94.193 Y124.178 E41.97581
G1 X105.807 Y135.793 E43.07468
G1 X105.807 Y135.034 E43.12543
G1 X94.193 Y123.420 E44.22431
G1 X94.193 Y122.661 E44.27506
G1 X105.807 Y134.276 E45.37393
G1 X105.807 Y133.517 E45.42468
G1 X94.193 Y121.903 E46.52355
G1 X94.193 Y121.144 E46.57430
G1 X105.807 Y132.758 E47.67317
G1 X105.807 Y132.000 E47.72392
G1 X94.193 Y120.386 E48.82279
G1 X94.193 Y119.627 E48.87354
G1 X105.807 Y131.241 E49.97242
G1 X105.807 Y130.483 E50.02317
G1 X94.193 Y118.868 E51.12204
G1 X94.193 Y118.110 E51.17279
G1 X105.807 Y129.724 E52.27166
G1 X105.807 Y128.965 E52.32241
G1 X94.193 Y117.351 E53.42128
G1 X94.193 Y116.593 E53.47203
G1 X105.807 Y128.207 E54.57090
G1 X105.807 Y127.448 E54.62165
G1 X94.193 Y115.834 E55.72053
G1 X94.193 Y115.076 E55.77128
G1 X105.807 Y126.690 E56.87015
G1 X105.807 Y125.931 E56.92090
G1 X94.193 Y114.317 E58.01977
G1 X94.193 Y113.558 E58.07052
G1 X105.807 Y125.173 E59.16939
G1 X105.807 Y124.414 E59.22014
G1 X94.193 Y112.800 E60.31902
G1 X94.193 Y112.041 E60.36977
G1 X105.807 Y123.655 E61.46864
G1 X105.807 Y122.897 E61.51939
G1 X94.193 Y111.283 E62.61826
G1 X94.193 Y110.524 E62.66901
G1 X105.807 Y122.138 E63.76788
G1 X105.807 Y121.380 E63.81863
G1 X94.193 Y109.765 E64.91750
G1 X94.193 Y109.007 E64.96825
G1 X105.807 Y120.621 E66.06713
G1 X105.807 Y119.863 E66.11788
G1 X94.193 Y108.248 E67.21675
G1 X94.193 Y107.490 E67.26750
G1 X105.807 Y119.104 E68.36637
G1 X105.807 Y118.345 E68.41712
G1 X94.193 Y106.731 E69.51599
G1 X94.193 Y105.973 E69.56674
G1 X105.807 Y117.587 E70.66561
G1 X105.807 Y116.828 E70.71636
G1 X94.193 Y105.214 E71.81524
G1 X94.193 Y104.455 E71.86599
G1 X105.807 Y116.070 E72.96486
G1 X105.807 Y115.311 E73.01561
G1 X94.193 Y103.697 E74.11448
G1 X94.193 Y102.938 E74.16523
G1 X105.807 Y114.553 E75.26410
G1 X105.807 Y113.794 E75.31485
G1 X94.193 Y102.180 E76.41372
G1 X94.193 Y101.421 E76.46448
G1 X105.807 Y113.035 E77.56335
G1 X105.807 Y112.277 E77.61410
G1 X94.193 Y100.663 E78.71297
G1 X94.193 Y99.904 E78.76372
G1 X105.807 Y111.518 E79.86259
G1 X105.807 Y110.760 E79.91334
G1 X94.193 Y99.145 E81.01221
G1 X94.193 Y98.387 E81.06296
G1 X105.807 Y110.001 E82.16184
G1 X105.807 Y109.242 E82.21259
G1 X94.193 Y97.628 E83.31146
G1 X94.193 Y96.870 E83.36221
G1 X105.807 Y108.484 E84.46108
G1 X105.807 Y107.725 E84.51183
G1 X94.193 Y96.111 E85.61070
G1 X94.193 Y95.352 E85.66145
G1 X105.807 Y106.967 E86.76032
G1 X105.807 Y106.208 E86.81107
G1 X94.193 Y94.594 E87.90995
G1 X94.193 Y93.835 E87.96070
G1 X105.807 Y105.450 E89.05957
G1 X105.807 Y104.691 E89.11032
G1 X94.193 Y93.077 E90.20919
G1 X94.193 Y92.318 E90.25994
G1 X105.807 Y103.932 E91.35881
G1 X105.807 Y103.174 E91.40956
G1 X94.193 Y91.560 E92.50844
G1 X94.193 Y90.801 E92.55919
G1 X105.807 Y102.415 E93.65806
G1 X105.807 Y101.657 E93.70881
G1 X94.193 Y90.042 E94.80768
G1 X94.193 Y89.284 E94.85843
G1 X105.807 Y100.898 E95.95730
G1 X105.807 Y100.140 E96.00805
G1 X94.193 Y88.525 E97.10692
G1 X94.193 Y87.767 E97.15767
G1 X105.807 Y99.381 E98.25655
G1 X105.807 Y98.622 E98.30730
G1 X94.193 Y87.008 E99.40617
G1 X94.193 Y86.250 E99.45692
G1 X105.807 Y97.864 E100.55579
G1 X105.807 Y97.105 E100.60654
G1 X94.193 Y85.491 E101.70541
G1 X94.193 Y84.732 E101.75616
G1 X105.807 Y96.347 E102.85503
G1 X105.807 Y95.588 E102.90579
G1 X94.193 Y83.974 E104.00466
G1 X94.193 Y83.215 E104.05541
G1 X105.807 Y94.829 E105.15428
G1 X105.807 Y94.071 E105.20503
G1 X94.193 Y82.457 E106.30390
G1 X94.193 Y81.698 E106.35465
G1 X105.807 Y93.312 E107.45352
G1 X105.807 Y92.554 E107.50427
G1 X94.193 Y80.939 E108.60315
G1 X94.193 Y80.181 E108.65390
G1 X105.807 Y91.795 E109.75277
G1 X105.807 Y91.037 E109.80352
G1 X94.193 Y79.422 E110.90239
G1 X94.193 Y78.664 E110.95314
G1 X105.807 Y90.278 E112.05201
G1 X105.807 Y89.519 E112.10276
G1 X94.193 Y77.905 E113.20163
G1 X94.193 Y77.147 E113.25238
G1 X105.807 Y88.761 E114.35126
G1 X105.807 Y88.002 E114.40201
G1 X94.193 Y76.388 E115.50088
G1 X94.193 Y75.629 E115.55163
G1 X105.807 Y87.244 E116.65050
G1 X105.807 Y86.485 E116.70125
G1 X94.193 Y74.871 E117.80012
G1 X94.193 Y74.112 E117.85087
G1 X105.807 Y85.727 E118.94975
G1 X105.807 Y84.968 E119.00050
G1 X94.193 Y73.354 E120.09937
G1 X94.193 Y72.595 E120.15012
G1 X105.807 Y84.209 E121.24899
G1 X105.807 Y83.451 E121.29974
G1 X94.193 Y71.837 E122.39861
G1 X94.193 Y71.078 E122.44936
G1 X105.807 Y82.692 E123.54823
G1 X105.807 Y81.934 E123.59898
G1 X94.193 Y70.319 E124.69786
G1 X94.193 Y69.561 E124.74861
G1 X105.807 Y81.175 E125.84748
G1 X105.807 Y80.416 E125.89823
G1 X94.193 Y68.802 E126.99710
G1 X94.193 Y68.044 E127.04785
G1 X105.807 Y79.658 E128.14672
G1 X105.807 Y78.899 E128.19747
G1 X94.193 Y67.285 E129.29634
G1 X94.193 Y66.527 E129.34710
G1 X105.807 Y78.141 E130.44597
G1 X105.807 Y77.382 E130.49672
G1 X94.193 Y65.768 E131.59559
G1 X94.876 Y65.693 E131.64159
G1 X105.807 Y76.624 E132.67579
G1 X105.807 Y75.865 E132.72654
G1 X95.635 Y65.693 E133.68897
G1 X96.394 Y65.693 E133.73972
G1 X105.807 Y75.106 E134.63038
G1 X105.807 Y74.348 E134.68113
G1 X97.152 Y65.693 E135.50002
G1 X97.911 Y65.693 E135.55077
G1 X105.807 Y73.589 E136.29788
G1 X105.807 Y72.831 E136.34863
G1 X98.669 Y65.693 E137.02397
G1 X99.428 Y65.693 E137.07472
G1 X105.807 Y72.072 E137.67829
G1 X105.807 Y71.314 E137.72904
G1 X100.186 Y65.693 E138.26084
G1 X100.945 Y65.693 E138.31159
G1 X105.807 Y70.555 E138.77161
G1 X105.807 Y69.796 E138.82236
G1 X101.693 Y65.682 E139.21163
G1 X101.693 Y64.924 E139.26238
G1 X105.807 Y69.038 E139.65164
G1 X105.807 Y68.279 E139.70239
G1 X101.693 Y64.165 E140.09166
G1 X101.693 Y63.406 E140.14241
G1 X105.807 Y67.521 E140.53168
G1 X105.807 Y66.762 E140.58243
G1 X101.740 Y62.695 E140.96721
G1 X102.500 Y62.697 E141.01805
G1 X105.807 Y66.004 E141.33093
G1 X105.807 Y65.245 E141.38168
G1 X103.260 Y62.698 E141.62266
G1 X104.020 Y62.699 E141.67350
G1 X105.807 Y64.486 E141.84259
G1 X105.807 Y63.728 E141.89334
G1 X104.780 Y62.701 E141.99053
G1 X105.540 Y62.702 E142.04137
G1 X105.807 Y62.969 E142.06665
G1 X101.287 Y134.307 F6000.000
G1 X94.193 Y127.213 E142.73788 F3000.000
G1 X94.193 Y127.971 E142.78863
G1 X100.529 Y134.307 E143.38809
G1 X99.770 Y134.307 E143.43884
G1 X94.193 Y128.730 E143.96652
G1 X94.193 Y129.488 E144.01727
G1 X99.012 Y134.307 E144.47318
G1 X98.253 Y134.307 E144.52393
G1 X94.193 Y130.247 E144.90807
G1 X94.193 Y131.006 E144.95882
G1 X97.494 Y134.307 E145.27119
G1 X96.736 Y134.307 E145.32194
G1 X94.193 Y131.764 E145.56253
G1 X94.193 Y132.523 E145.61328
G1 X95.977 Y134.307 E145.78210
G1 X95.219 Y134.307 E145.83285
G1 X94.193 Y133.281 E145.92990
G1 X94.193 Y134.040 E145.98065
G1 X94.460 Y134.307 E146.00593
M104 S190 ; set temperature
G1 Z0.500 F6000.000
G1 X101.315 Y134.679 F6000.000
G1 X93.821 Y134.679 E146.39744 F3600.000
G1 X93.821 Y65.321 E150.02104
G1 X101.321 Y65.321 E150.41287
G1 X101.321 Y62.322 E150.56954
G1 X106.179 Y62.330 E150.82335
G1 X106.179 Y137.679 E154.75997
G1 X101.329 Y137.679 E155.01335
G1 X101.315 Y134.739 E155.16695
G1 X100.689 Y135.307 F6000.000
G1 X93.193 Y135.307 E155.55861 F3600.000
G1 X93.193 Y64.693 E159.24787
G1 X100.693 Y64.693 E159.63970
G1 X100.693 Y61.693 E159.79642
G1 X106.807 Y61.702 E160.11588
G1 X106.807 Y138.307 E164.11810
G1 X100.704 Y138.307 E164.43698
G1 X100.690 Y135.367 E164.59058
G1 X100.199 Y135.800 F6000.000
G1 X92.700 Y135.800 E164.81324 F1800.000
G1 X92.700 Y64.200 E166.93913
G1 X100.200 Y64.200 E167.16182
G1 X100.200 Y61.511 E167.24165
G1 X100.231 Y61.370 E167.24593
G1 X100.266 Y61.314 E167.24792
G1 X100.370 Y61.231 E167.25187
G1 X100.511 Y61.200 E167.25614
G1 X107.059 Y61.210 E167.45055
G1 X107.133 Y61.233 E167.45285
G1 X107.234 Y61.314 E167.45669
G1 X107.291 Y61.434 E167.46064
G1 X107.300 Y61.511 E167.46296
G1 X107.300 Y138.489 E169.74852
G1 X107.273 Y138.620 E169.75250
G1 X107.189 Y138.728 E169.75654
G1 X107.126 Y138.770 E169.75880
G1 X106.989 Y138.800 E169.76297
G1 X100.511 Y138.800 E169.95530
G1 X100.370 Y138.769 E169.95958
G1 X100.266 Y138.686 E169.96353
G1 X100.212 Y138.577 E169.96715
G1 X100.199 Y135.860 E170.04782
G1 X100.198 Y135.400 F6000.000
G1 X101.695 Y134.811 F6000.000
G1 X105.798 Y130.708 E170.35404 F1200.000
G1 X105.798 Y131.606 E170.40141
G1 X101.700 Y135.704 E170.70730
G1 X101.704 Y136.598 E170.75445
G1 X105.798 Y132.504 E171.06002
G1 X105.798 Y133.401 E171.10740
G1 X101.901 Y137.298 E171.39825
G1 X102.799 Y137.298 E171.44562
G1 X105.798 Y134.299 E171.66949
G1 X105.798 Y135.196 E171.71686
G1 X103.696 Y137.298 E171.87373
G1 X104.594 Y137.298 E171.92110
G1 X105.798 Y136.094 E172.01098
G1 X105.798 Y136.992 E172.05835
G1 X105.492 Y137.298 E172.08123
G1 X101.311 Y134.298 F6000.000
G1 X105.798 Y129.811 E172.41616 F1200.000
G1 X105.798 Y128.913 E172.46353
G1 X100.413 Y134.298 E172.86545
G1 X99.516 Y134.298 E172.91282
G1 X105.798 Y128.016 E173.38173
G1 X105.798 Y127.118 E173.42910
G1 X98.618 Y134.298 E173.96501
G1 X97.720 Y134.298 E174.01238
G1 X105.798 Y126.220 E174.61528
G1 X105.798 Y125.323 E174.66265
G1 X96.823 Y134.298 E175.33255
G1 X95.925 Y134.298 E175.37992
G1 X105.798 Y124.425 E176.11681
G1 X105.798 Y123.528 E176.16418
G1 X95.028 Y134.298 E176.96806
G1 X94.202 Y134.226 E177.01181
G1 X105.798 Y122.630 E177.87732
G1 X105.798 Y121.732 E177.92470
G1 X94.202 Y133.329 E178.79021
G1 X94.202 Y132.431 E178.83758
G1 X105.798 Y120.835 E179.70310
G1 X105.798 Y119.937 E179.75047
G1 X94.202 Y131.534 E180.61599
G1 X94.202 Y130.636 E180.66336
G1 X105.798 Y119.040 E181.52887
G1 X105.798 Y118.142 E181.57624
G1 X94.202 Y129.738 E182.44176
G1 X94.202 Y128.841 E182.48913
G1 X105.798 Y117.244 E183.35465
G1 X105.798 Y116.347 E183.40202
G1 X94.202 Y127.943 E184.26753
G1 X94.202 Y127.046 E184.31490
G1 X105.798 Y115.449 E185.18042
G1 X105.798 Y114.551 E185.22779
G1 X94.202 Y126.148 E186.09331
G1 X94.202 Y125.250 E186.14068
G1 X105.798 Y113.654 E187.00619
G1 X105.798 Y112.756 E187.05357
G1 X94.202 Y124.353 E187.91908
G1 X94.202 Y123.455 E187.96645
G1 X105.798 Y111.859 E188.83197
G1 X105.798 Y110.961 E188.87934
G1 X94.202 Y122.557 E189.74485
G1 X94.202 Y121.660 E189.79223
G1 X105.798 Y110.063 E190.65774
G1 X105.798 Y109.166 E190.70511
G1 X94.202 Y120.762 E191.57063
G1 X94.202 Y119.865 E191.61800
G1 X105.798 Y108.268 E192.48351
G1 X105.798 Y107.371 E192.53089
G1 X94.202 Y118.967 E193.39640
G1 X94.202 Y118.069 E193.44377
G1 X105.798 Y106.473 E194.30929
G1 X105.798 Y105.575 E194.35666
G1 X94.202 Y117.172 E195.22217
G1 X94.202 Y116.274 E195.26955
G1 X105.798 Y104.678 E196.13506
G1 X105.798 Y103.780 E196.18243
G1 X94.202 Y115.377 E197.04795
G1 X94.202 Y114.479 E197.09532
G1 X105.798 Y102.883 E197.96084
G1 X105.798 Y101.985 E198.00821
G1 X94.202 Y113.581 E198.87372
G1 X94.202 Y112.684 E198.92109
G1 X105.798 Y101.087 E199.78661
G1 X105.798 Y100.190 E199.83398
G1 X94.202 Y111.786 E200.69950
G1 X94.202 Y110.889 E200.74687
G1 X105.798 Y99.292 E201.61238
G1 X105.798 Y98.395 E201.65975
G1 X94.202 Y109.991 E202.52527
G1 X94.202 Y109.093 E202.57264
G1 X105.798 Y97.497 E203.43816
G1 X105.798 Y96.599 E203.48553
G1 X94.202 Y108.196 E204.35104
G1 X94.202 Y107.298 E204.39842
G1 X105.798 Y95.702 E205.26393
G1 X105.798 Y94.804 E205.31130
G1 X94.202 Y106.401 E206.17682
G1 X94.202 Y105.503 E206.22419
G1 X105.798 Y93.907 E207.08970
G1 X105.798 Y93.009 E207.13708
G1 X94.202 Y104.605 E208.00259
G1 X94.202 Y103.708 E208.04996
G1 X105.798 Y92.111 E208.91548
G1 X105.798 Y91.214 E208.96285
G1 X94.202 Y102.810 E209.82836
G1 X94.202 Y101.913 E209.87574
G1 X105.798 Y90.316 E210.74125
G1 X105.798 Y89.418 E210.78862
G1 X94.202 Y101.015 E211.65414
G1 X94.202 Y100.117 E211.70151
G1 X105.798 Y88.521 E212.56702
G1 X105.798 Y87.623 E212.61440
