; generated by Slic3r 1.2.9 on 2018-05-04 at 11:12:42

; external perimeters extrusion width = 0.40mm
; perimeters extrusion width = 0.67mm
; infill extrusion width = 0.67mm
; solid infill extrusion width = 0.67mm
; top infill extrusion width = 0.67mm

M107
M190 S50 ; set bed temperature
M104 S200 ; set temperature
G28 ; home all axes
G1 Z5 F5000 ; lift nozzle

M109 S200 ; wait for temperature to be reached
G21 ; set units to millimeters
G90 ; use absolute coordinates
M82 ; use absolute distances for extrusion
G92 E0
G1 Z0.300 F6000.000
G1 E-2.00000 F2400.00000
G92 E0
G1 X99.553 Y57.477 F6000.000
G1 E2.00000 F2400.00000
G1 X100.395 Y56.019 E2.11249 F3000.000
G1 X101.908 Y54.194 E2.27082
G1 X103.938 Y52.971 E2.42915
G1 X106.258 Y52.488 E2.58748
G1 X108.269 Y52.703 E2.72257
G1 X111.986 Y53.652 E2.97885 F3000.000
G1 X114.151 Y54.615 E3.13718
G1 X115.877 Y56.239 E3.29551
G1 X116.969 Y58.343 E3.45384
G1 X117.308 Y60.504 E3.59996
G1 X117.308 Y139.496 E8.87709
G1 X116.910 Y141.833 E9.03542
G1 X115.764 Y143.907 E9.19375
G1 X113.996 Y145.485 E9.35208
G1 X111.986 Y146.348 E9.49820
G1 X108.269 Y147.297 E9.75449
G1 X105.907 Y147.490 E9.91282
G1 X103.613 Y146.892 E10.07115
G1 X101.646 Y145.570 E10.22948
G1 X100.395 Y143.981 E10.36456
G1 X83.640 Y114.959 E12.60330
G1 X82.815 Y112.737 E12.76163
G1 X82.692 Y111.424 E12.84976
G1 X82.692 Y88.576 E14.37611
G1 X83.090 Y86.240 E14.53444
G1 X83.640 Y85.041 E14.62257
G1 X99.523 Y57.529 E16.74481
G1 X100.017 Y57.745 F6000.000
G1 X100.859 Y56.287 E16.85730 F3000.000
G1 X102.325 Y54.543 E17.00947
G1 X104.299 Y53.408 E17.16164
G1 X106.544 Y53.019 E17.31382
G1 X108.136 Y53.222 E17.42106
G1 X111.853 Y54.171 E17.67735 F3000.000
G1 X113.928 Y55.111 E17.82952
G1 X115.555 Y56.705 E17.98169
G1 X116.535 Y58.761 E18.13386
G1 X116.772 Y60.504 E18.25133
G1 X116.772 Y139.496 E23.52847
G1 X116.375 Y141.739 E23.68064
G1 X115.232 Y143.710 E23.83281
G1 X113.483 Y145.169 E23.98498
G1 X111.853 Y145.829 E24.10245
G1 X108.136 Y146.778 E24.35874
G1 X105.865 Y146.948 E24.51091
G1 X103.673 Y146.329 E24.66308
G1 X101.827 Y144.994 E24.81525
G1 X100.859 Y143.713 E24.92250
G1 X84.104 Y114.692 E27.16124
G1 X83.228 Y111.424 E27.38724
G1 X83.228 Y88.576 E28.91359
G1 X84.104 Y85.308 E29.13959
G1 X99.987 Y57.797 E31.26183
G1 E29.26183 F2400.00000
G92 E0
G1 X108.865 Y137.626 F6000.000
G1 E2.00000 F2400.00000
G1 X108.865 Y138.125 E2.03334 F3000.000
G1 X108.477 Y138.125 E2.05927
G1 X108.413 Y137.887 E2.07574
G1 X108.813 Y137.656 E2.10659
G1 X108.865 Y62.374 F6000.000
G1 X108.413 Y62.113 E2.14145 F3000.000
G1 X108.477 Y61.875 E2.15792
G1 X108.865 Y61.875 E2.18384
G1 X108.865 Y62.314 E2.21318
G1 X108.872 Y137.004 F6000.000
G1 X108.872 Y62.996 E7.15725 F3000.000
G1 X106.349 Y61.540 E7.35191
G1 X106.833 Y60.701 E7.41663
G1 X107.939 Y61.339 E7.50196
G1 X109.401 Y61.339 E7.59959
G1 X109.401 Y138.661 E12.76508
G1 X107.939 Y138.661 E12.86272
G1 X106.825 Y139.304 E12.94866
G1 X106.341 Y138.465 E13.01338
G1 X108.820 Y137.034 E13.20463
G1 X108.336 Y136.694 F6000.000
G1 X108.336 Y63.306 E18.10739 F3000.000
G1 X106.692 Y62.356 E18.23427
G1 X91.256 Y89.091 E20.29664
G1 X90.173 Y88.466 E20.38014
G1 X106.637 Y59.969 E22.57880
G1 X108.083 Y60.804 E22.69031
G1 X109.936 Y60.804 E22.81414
G1 X109.936 Y139.196 E28.05119
G1 X108.083 Y139.196 E28.17502
G1 X106.629 Y140.036 E28.28716
G1 X90.173 Y111.534 E30.48582
G1 X91.256 Y110.909 E30.56932
G1 X106.692 Y137.644 E32.63169
G1 X108.284 Y136.724 E32.75456
G1 X108.730 Y136.625 F6000.000
G1 X108.186 Y138.075 F6000.000
G1 X107.759 Y138.205 E32.81782 F3000.000
G1 X106.815 Y138.751 E32.97227
G1 X106.284 Y138.188 F6000.000
G1 X90.849 Y111.453 E37.34490 F3000.000
G1 E35.34490 F2400.00000
G92 E0
G1 X90.849 Y88.547 F6000.000
G1 E2.00000 F2400.00000
G1 X106.288 Y61.814 E6.37263 F3000.000
G1 X106.823 Y61.254 F6000.000
G1 X107.759 Y61.795 E6.52579 F3000.000
G1 X108.186 Y61.925 E6.58905
M104 S190 ; set temperature
G1 Z0.500 F6000.000
G1 X108.915 Y137.539 F6000.000
G1 X108.915 Y138.175 E6.62230 F900.000
G1 X108.372 Y138.175 E6.65068
G1 X108.297 Y137.896 E6.66579
G1 X108.863 Y137.569 E6.69995
G1 X108.915 Y62.461 F6000.000
G1 X108.297 Y62.104 E6.73723 F900.000
G1 X108.372 Y61.825 E6.75235
G1 X108.915 Y61.825 E6.78073
G1 X108.915 Y62.401 E6.81084
G1 X106.548 Y61.820 F6000.000
G1 X91.112 Y88.555 E8.42371 F3600.000
G1 X90.710 Y88.323 E8.44798
G1 X106.773 Y60.501 E10.12640
G1 X107.978 Y61.196 E10.19907
G1 X109.544 Y61.196 E10.28090
G1 X109.544 Y138.804 E14.33548
G1 X107.978 Y138.804 E14.41730
G1 X106.773 Y139.499 E14.48998
G1 X90.710 Y111.677 E16.16839
G1 X91.112 Y111.445 E16.19267
G1 X106.548 Y138.180 E17.80554
G1 X108.729 Y136.921 E17.93712
G1 X108.729 Y63.079 E21.79500
G1 X106.600 Y61.850 E21.92345
G1 X106.728 Y62.493 F6000.000
G1 X91.293 Y89.228 E22.84006 F1800.000
G1 X90.037 Y88.503 E22.88311
G1 X106.592 Y59.828 E23.86623
G1 X108.110 Y60.704 E23.91824
G1 X110.036 Y60.704 E23.97545
G1 X110.036 Y139.296 E26.30897
G1 X108.110 Y139.296 E26.36618
G1 X106.592 Y140.172 E26.41819
G1 X90.037 Y111.497 E27.40131
G1 X91.293 Y110.772 E27.44436
G1 X106.728 Y137.507 E28.36097
G1 X108.236 Y136.637 E28.41267
G1 X108.236 Y63.363 E30.58825
G1 X106.780 Y62.523 E30.63818
G1 X106.382 Y62.293 F6000.000
G1 X106.731 Y61.201 F6000.000
G1 X108.015 Y61.942 E30.79839 F1200.000
G1 X109.136 Y62.951 F6000.000
G1 X109.136 Y137.049 E34.66959 F1200.000
G1 X108.015 Y138.058 F6000.000
G1 X106.731 Y138.799 E34.82981 F1200.000
G1 Z0.700 F6000.000
G1 X108.915 Y137.539 F6000.000
G1 X108.915 Y138.175 E34.86305 F900.000
G1 X108.372 Y138.175 E34.89143
G1 X108.297 Y137.896 E34.90655
G1 X108.863 Y137.569 E34.94070
G1 X108.915 Y62.461 F6000.000
G1 X108.297 Y62.104 E34.97799 F900.000
G1 X108.372 Y61.825 E34.99311
G1 X108.915 Y61.825 E35.02149
G1 X108.915 Y62.401 E35.05160
G1 X106.548 Y61.820 F6000.000
G1 X91.112 Y88.555 E36.66446 F3600.000
G1 X90.710 Y88.323 E36.68874
G1 X106.773 Y60.501 E38.36715
G1 X107.978 Y61.196 E38.43983
G1 X109.544 Y61.196 E38.52165
G1 X109.544 Y138.804 E42.57624
G1 X107.978 Y138.804 E42.65806
G1 X106.773 Y139.499 E42.73074
G1 X90.710 Y111.677 E44.40915
G1 X91.112 Y111.445 E44.43343
G1 X106.548 Y138.180 E46.04629
G1 X108.729 Y136.921 E46.17788
G1 X108.729 Y63.079 E50.03575
G1 X106.600 Y61.850 E50.16420
G1 X106.728 Y62.493 F6000.000
G1 X91.293 Y89.228 E51.08081 F1800.000
G1 X90.037 Y88.503 E51.12387
G1 X106.592 Y59.828 E52.10698
G1 X108.110 Y60.704 E52.15900
G1 X110.036 Y60.704 E52.21621
G1 X110.036 Y139.296 E54.54972
G1 X108.110 Y139.296 E54.60693
G1 X106.592 Y140.172 E54.65895
G1 X90.037 Y111.497 E55.64206
G1 X91.293 Y110.772 E55.68512
G1 X106.728 Y137.507 E56.60173
G1 X108.236 Y136.637 E56.65343
G1 X108.236 Y63.363 E58.82901
G1 X106.780 Y62.523 E58.87893
G1 X106.382 Y62.293 F6000.000
G1 X106.731 Y61.201 F6000.000
G1 X108.015 Y61.942 E59.03915 F1200.000
G1 X109.136 Y62.951 F6000.000
G1 X109.136 Y137.049 E62.91035 F1200.000
G1 X108.015 Y138.058 F6000.000
G1 X106.731 Y138.799 E63.07057 F1200.000
M106 S211.65
G1 Z0.900 F6000.000
G1 X108.915 Y137.539 F6000.000
G1 X108.915 Y138.175 E63.10381 F900.000
G1 X108.372 Y138.175 E63.13219
G1 X108.297 Y137.896 E63.14731
G1 X108.863 Y137.569 E63.18146
G1 X108.915 Y62.461 F6000.000
G1 X108.297 Y62.104 E63.21875 F900.000
G1 X108.372 Y61.825 E63.23386
G1 X108.915 Y61.825 E63.26224
G1 X108.915 Y62.401 E63.29235
G1 X106.548 Y61.820 F6000.000
G1 X91.112 Y88.555 E64.90522 F3600.000
G1 X90.710 Y88.323 E64.92950
G1 X106.773 Y60.501 E66.60791
G1 X107.978 Y61.196 E66.68059
G1 X109.544 Y61.196 E66.76241
G1 X109.544 Y138.804 E70.81699
G1 X107.978 Y138.804 E70.89882
G1 X106.773 Y139.499 E70.97149
G1 X90.710 Y111.677 E72.64991
G1 X91.112 Y111.445 E72.67418
G1 X106.548 Y138.180 E74.28705
G1 X108.729 Y136.921 E74.41864
G1 X108.729 Y63.079 E78.27651
G1 X106.600 Y61.850 E78.40496
G1 X106.728 Y62.493 F6000.000
G1 X91.293 Y89.228 E79.32157 F1800.000
G1 X90.037 Y88.503 E79.36462
G1 X106.592 Y59.828 E80.34774
G1 X108.110 Y60.704 E80.39976
G1 X110.036 Y60.704 E80.45696
G1 X110.036 Y139.296 E82.79048
G1 X108.110 Y139.296 E82.84769
G1 X106.592 Y140.172 E82.89970
G1 X90.037 Y111.497 E83.88282
G1 X91.293 Y110.772 E83.92587
G1 X106.728 Y137.507 E84.84248
G1 X108.236 Y136.637 E84.89419
G1 X108.236 Y63.363 E87.06977
G1 X106.780 Y62.523 E87.11969
G1 X106.382 Y62.293 F6000.000
G1 X106.731 Y61.201 F6000.000
G1 X108.015 Y61.942 E87.27991 F1200.000
G1 X109.136 Y62.951 F6000.000
G1 X109.136 Y137.049 E91.15111 F1200.000
G1 X108.015 Y138.058 F6000.000
G1 X106.731 Y138.799 E91.31133 F1200.000
G1 Z1.100 F6000.000
G1 X108.915 Y137.539 F6000.000
G1 X108.915 Y138.175 E91.34457 F900.000
G1 X108.372 Y138.175 E91.37295
G1 X108.297 Y137.896 E91.38806
G1 X108.863 Y137.569 E91.42222
G1 X108.915 Y62.461 F6000.000
G1 X108.297 Y62.104 E91.45951 F900.000
G1 X108.372 Y61.825 E91.47462
G1 X108.915 Y61.825 E91.50300
G1 X108.915 Y62.401 E91.53311
G1 X106.548 Y61.820 F6000.000
G1 X91.112 Y88.555 E93.14598 F3600.000
G1 X90.710 Y88.323 E93.17025
G1 X106.773 Y60.501 E94.84867
G1 X107.978 Y61.196 E94.92135
G1 X109.544 Y61.196 E95.00317
G1 X109.544 Y138.804 E99.05775
G1 X107.978 Y138.804 E99.13957
G1 X106.773 Y139.499 E99.21225
G1 X90.710 Y111.677 E100.89067
G1 X91.112 Y111.445 E100.91494
G1 X106.548 Y138.180 E102.52781
G1 X108.729 Y136.921 E102.65940
G1 X108.729 Y63.079 E106.51727
G1 X106.600 Y61.850 E106.64572
G1 X106.728 Y62.493 F6000.000
G1 X91.293 Y89.228 E107.56233 F1800.000
G1 X90.037 Y88.503 E107.60538
G1 X106.592 Y59.828 E108.58850
G1 X108.110 Y60.704 E108.64051
G1 X110.036 Y60.704 E108.69772
G1 X110.036 Y139.296 E111.03124
G1 X108.110 Y139.296 E111.08845
G1 X106.592 Y140.172 E111.14046
G1 X90.037 Y111.497 E112.12358
G1 X91.293 Y110.772 E112.16663
G1 X106.728 Y137.507 E113.08324
G1 X108.236 Y136.637 E113.13495
G1 X108.236 Y63.363 E115.31052
G1 X106.780 Y62.523 E115.36045
G1 X106.382 Y62.293 F6000.000
G1 X106.731 Y61.201 F6000.000
G1 X108.015 Y61.942 E115.52067 F1200.000
G1 X109.136 Y62.951 F6000.000
G1 X109.136 Y137.049 E119.39187 F1200.000
G1 X108.015 Y138.058 F6000.000
G1 X106.731 Y138.799 E119.55208 F1200.000
G1 Z1.300 F6000.000
G1 X108.915 Y137.539 F6000.000
G1 X108.915 Y138.175 E119.58533 F900.000
G1 X108.372 Y138.175 E119.61371
G1 X108.297 Y137.896 E119.62882
G1 X108.863 Y137.569 E119.66298
G1 X108.915 Y62.461 F6000.000
G1 X108.297 Y62.104 E119.70027 F900.000
G1 X108.372 Y61.825 E119.71538
G1 X108.915 Y61.825 E119.74376
G1 X108.915 Y62.401 E119.77387
G1 X106.548 Y61.820 F6000.000
G1 X91.112 Y88.555 E121.38674 F3600.000
G1 X90.710 Y88.323 E121.41101
G1 X106.773 Y60.501 E123.08943
G1 X107.978 Y61.196 E123.16211
G1 X109.544 Y61.196 E123.24393
G1 X109.544 Y138.804 E127.29851
G1 X107.978 Y138.804 E127.38033
G1 X106.773 Y139.499 E127.45301
G1 X90.710 Y111.677 E129.13143
G1 X91.112 Y111.445 E129.15570
G1 X106.548 Y138.180 E130.76857
G1 X108.729 Y136.921 E130.90015
G1 X108.729 Y63.079 E134.75803
G1 X106.600 Y61.850 E134.88648
G1 X106.728 Y62.493 F6000.000
G1 X91.293 Y89.228 E135.80309 F1800.000
G1 X90.037 Y88.503 E135.84614
G1 X106.592 Y59.828 E136.82926
G1 X108.110 Y60.704 E136.88127
G1 X110.036 Y60.704 E136.93848
G1 X110.036 Y139.296 E139.27200
G1 X108.110 Y139.296 E139.32921
G1 X106.592 Y140.172 E139.38122
G1 X90.037 Y111.497 E140.36434
G1 X91.293 Y110.772 E140.40739
G1 X106.728 Y137.507 E141.32400
G1 X108.236 Y136.637 E141.37571
G1 X108.236 Y63.363 E143.55128
G1 X106.780 Y62.523 E143.60121
G1 X106.382 Y62.293 F6000.000
G1 X106.731 Y61.201 F6000.000
G1 X108.015 Y61.942 E143.76142 F1200.000
G1 X109.136 Y62.951 F6000.000
G1 X109.136 Y137.049 E147.63262 F1200.000
G1 X108.015 Y138.058 F6000.000
G1 X106.731 Y138.799 E147.79284 F1200.000
G1 Z1.500 F6000.000
G1 X108.915 Y137.539 F6000.000
G1 X108.915 Y138.175 E147.82608 F900.000
G1 X108.372 Y138.175 E147.85447
G1 X108.297 Y137.896 E147.86958
G1 X108.863 Y137.569 E147.90373
G1 X108.915 Y62.461 F6000.000
G1 X108.297 Y62.104 E147.94102 F900.000
G1 X108.372 Y61.825 E147.95614
G1 X108.915 Y61.825 E147.98452
G1 X108.915 Y62.401 E148.01463
G1 X106.548 Y61.820 F6000.000
G1 X91.112 Y88.555 E149.62750 F3600.000
G1 X90.710 Y88.323 E149.65177
G1 X106.773 Y60.501 E151.33018
G1 X107.978 Y61.196 E151.40286
G1 X109.544 Y61.196 E151.48468
G1 X109.544 Y138.804 E155.53927
G1 X107.978 Y138.804 E155.62109
G1 X106.773 Y139.499 E155.69377
G1 X90.710 Y111.677 E157.37218
G1 X91.112 Y111.445 E157.39646
G1 X106.548 Y138.180 E159.00933
G1 X108.729 Y136.921 E159.14091
G1 X108.729 Y63.079 E162.99879
G1 X106.600 Y61.850 E163.12724
G1 X106.728 Y62.493 F6000.000
G1 X91.293 Y89.228 E164.04385 F1800.000
G1 X90.037 Y88.503 E164.08690
G1 X106.592 Y59.828 E165.07002
G1 X108.110 Y60.704 E165.12203
G1 X110.036 Y60.704 E165.17924
G1 X110.036 Y139.296 E167.51276
G1 X108.110 Y139.296 E167.56996
G1 X106.592 Y140.172 E167.62198
G1 X90.037 Y111.497 E168.60510
G1 X91.293 Y110.772 E168.64815
G1 X106.728 Y137.507 E169.56476
G1 X108.236 Y136.637 E169.61646
G1 X108.236 Y63.363 E171.79204
G1 X106.780 Y62.523 E171.84196
G1 X106.382 Y62.293 F6000.000
G1 X106.731 Y61.201 F6000.000
G1 X108.015 Y61.942 E172.00218 F1200.000
G1 X109.136 Y62.951 F6000.000
G1 X109.136 Y137.049 E175.87338 F1200.000
G1 X108.015 Y138.058 F6000.000
G1 X106.731 Y138.799 E176.03360 F1200.000
G1 Z1.700 F6000.000
G1 X108.915 Y137.539 F6000.000
G1 X108.915 Y138.175 E176.06684 F900.000
G1 X108.372 Y138.175 E176.09522
G1 X108.297 Y137.896 E176.11034
G1 X108.863 Y137.569 E176.14449
G1 X108.915 Y62.461 F6000.000
G1 X108.297 Y62.104 E176.18178 F900.000
G1 X108.372 Y61.825 E176.19689
G1 X108.915 Y61.825 E176.22528
G1 X108.915 Y62.401 E176.25538
G1 X106.548 Y61.820 F6000.000
G1 X91.112 Y88.555 E177.86825 F3600.000
G1 X90.710 Y88.323 E177.89253
G1 X106.773 Y60.501 E179.57094
G1 X107.978 Y61.196 E179.64362
G1 X109.544 Y61.196 E179.72544
G1 X109.544 Y138.804 E183.78003
G1 X107.978 Y138.804 E183.86185
G1 X106.773 Y139.499 E183.93453
G1 X90.710 Y111.677 E185.61294
G1 X91.112 Y111.445 E185.63722
G1 X106.548 Y138.180 E187.25008
G1 X108.729 Y136.921 E187.38167
G1 X108.729 Y63.079 E191.23954
G1 X106.600 Y61.850 E191.36799
G1 X106.728 Y62.493 F6000.000
G1 X91.293 Y89.228 E192.28460 F1800.000
G1 X90.037 Y88.503 E192.32766
G1 X106.592 Y59.828 E193.31077
G1 X108.110 Y60.704 E193.36279
G1 X110.036 Y60.704 E193.42000
G1 X110.036 Y139.296 E195.75351
G1 X108.110 Y139.296 E195.81072
G1 X106.592 Y140.172 E195.86274
G1 X90.037 Y111.497 E196.84585
G1 X91.293 Y110.772 E196.88891
G1 X106.728 Y137.507 E197.80552
G1 X108.236 Y136.637 E197.85722
G1 X108.236 Y63.363 E200.03280
G1 X106.780 Y62.523 E200.08272
G1 X106.382 Y62.293 F6000.000
G1 X106.731 Y61.201 F6000.000
G1 X108.015 Y61.942 E200.24294 F1200.000
G1 X109.136 Y62.951 F6000.000
G1 X109.136 Y137.049 E204.11414 F1200.000
G1 X108.015 Y138.058 F6000.000
G1 X106.731 Y138.799 E204.27436 F1200.000
G1 Z1.900 F6000.000
G1 X108.915 Y137.539 F6000.000
G1 X108.915 Y138.175 E204.30760 F900.000
G1 X108.372 Y138.175 E204.33598
G1 X108.297 Y137.896 E204.35110
G1 X108.863 Y137.569 E204.38525
G1 X108.915 Y62.461 F6000.000
G1 X108.297 Y62.104 E204.42254 F900.000
G1 X108.372 Y61.825 E204.43765
G1 X108.915 Y61.825 E204.46603
G1 X108.915 Y62.401 E204.49614
G1 X106.548 Y61.820 F6000.000
G1 X91.112 Y88.555 E206.10901 F3600.000
G1 X90.710 Y88.323 E206.13329
G1 X106.773 Y60.501 E207.81170
G1 X107.978 Y61.196 E207.88438
G1 X109.544 Y61.196 E207.96620
G1 X109.544 Y138.804 E212.02078
G1 X107.978 Y138.804 E212.10261
G1 X106.773 Y139.499 E212.17528
G1 X90.710 Y111.677 E213.85370
G1 X91.112 Y111.445 E213.87797
G1 X106.548 Y138.180 E215.49084
G1 X108.729 Y136.921 E215.62243
G1 X108.729 Y63.079 E219.48030
G1 X106.600 Y61.850 E219.60875
G1 X106.728 Y62.493 F6000.000
G1 X91.293 Y89.228 E220.52536 F1800.000
G1 X90.037 Y88.503 E220.56841
G1 X106.592 Y59.828 E221.55153
G1 X108.110 Y60.704 E221.60355
G1 X110.036 Y60.704 E221.66075
G1 X110.036 Y139.296 E223.99427
G1 X108.110 Y139.296 E224.05148
G1 X106.592 Y140.172 E224.10349
G1 X90.037 Y111.497 E225.08661
G1 X91.293 Y110.772 E225.12966
G1 X106.728 Y137.507 E226.04627
G1 X108.236 Y136.637 E226.09798
G1 X108.236 Y63.363 E228.27356
G1 X106.780 Y62.523 E228.32348
G1 X106.382 Y62.293 F6000.000
G1 X106.731 Y61.201 F6000.000
