; generated by Slic3r 1.2.9 on 2018-05-04 at 13:08:41

; external perimeters extrusion width = 0.40mm
; perimeters extrusion width = 0.67mm
; infill extrusion width = 0.67mm
; solid infill extrusion width = 0.67mm
; top infill extrusion width = 0.67mm

M107
M190 S50 ; set bed temperature
M104 S200 ; set temperature
G28 ; home all axes
G1 Z5 F5000 ; lift nozzle

M109 S200 ; wait for temperature to be reached
G21 ; set units to millimeters
G90 ; use absolute coordinates
M82 ; use absolute distances for extrusion
G92 E0
G1 Z0.300 F6000.000
G1 E-2.00000 F2400.00000
G92 E0
G1 X99.572 Y57.488 F6000.000
G1 E2.00000 F2400.00000
G1 X100.395 Y56.062 E2.10999 F3000.000
G1 X101.908 Y54.237 E2.26832
G1 X103.938 Y53.015 E2.42665
G1 X106.258 Y52.531 E2.58498
G1 X108.269 Y52.746 E2.72006
G1 X111.986 Y53.696 E2.97635 F3000.000
G1 X114.151 Y54.658 E3.13468
G1 X115.877 Y56.283 E3.29301
G1 X116.969 Y58.386 E3.45134
G1 X117.308 Y60.547 E3.59745
G1 X117.308 Y139.540 E8.87459
G1 X116.910 Y141.876 E9.03292
G1 X115.764 Y143.950 E9.19125
G1 X113.996 Y145.529 E9.34958
G1 X111.815 Y146.433 E9.50731
G1 X108.047 Y147.295 E9.76548
G1 X105.681 Y147.429 E9.92381
G1 X103.404 Y146.774 E10.08214
G1 X101.470 Y145.403 E10.24047
G1 X100.345 Y143.938 E10.36390
G1 X83.690 Y115.089 E12.58928
G1 X82.865 Y112.867 E12.74761
G1 X82.742 Y111.569 E12.83471
G1 X82.692 Y88.635 E14.36684
G1 X83.084 Y86.298 E14.52517
G1 X83.640 Y85.084 E14.61433
G1 X99.542 Y57.540 E16.73908
G1 X100.036 Y57.756 F6000.000
G1 X100.859 Y56.330 E16.84907 F3000.000
G1 X102.325 Y54.586 E17.00124
G1 X104.299 Y53.451 E17.15341
G1 X106.544 Y53.062 E17.30558
G1 X108.136 Y53.265 E17.41282
G1 X111.853 Y54.215 E17.66911 F3000.000
G1 X113.928 Y55.154 E17.82128
G1 X115.555 Y56.749 E17.97346
G1 X116.535 Y58.805 E18.12563
G1 X116.772 Y60.547 E18.24310
G1 X116.772 Y139.540 E23.52023
G1 X116.375 Y141.783 E23.67240
G1 X115.232 Y143.753 E23.82457
G1 X113.483 Y145.212 E23.97675
G1 X111.695 Y145.910 E24.10498
G1 X107.928 Y146.773 E24.36316
G1 X105.653 Y146.887 E24.51533
G1 X103.477 Y146.213 E24.66750
G1 X101.665 Y144.833 E24.81967
G1 X100.809 Y143.670 E24.91611
G1 X84.154 Y114.821 E27.14149
G1 X83.278 Y111.568 E27.36658
G1 X83.228 Y88.634 E28.89871
G1 X83.620 Y86.390 E29.05088
G1 X84.104 Y85.352 E29.12738
G1 X100.006 Y57.808 E31.25213
G1 E29.25213 F2400.00000
G92 E0
G1 X108.865 Y137.669 F6000.000
G1 E2.00000 F2400.00000
G1 X108.865 Y138.168 E2.03334 F3000.000
G1 X108.477 Y138.168 E2.05927
G1 X108.413 Y137.930 E2.07574
G1 X108.813 Y137.699 E2.10659
G1 X108.865 Y62.417 F6000.000
G1 X108.413 Y62.156 E2.14145 F3000.000
G1 X108.477 Y61.918 E2.15792
G1 X108.865 Y61.918 E2.18384
G1 X108.865 Y62.357 E2.21318
G1 X108.872 Y63.040 F6000.000
G1 X106.341 Y61.578 E2.40844 F3000.000
G1 X106.825 Y60.739 E2.47316
G1 X107.939 Y61.383 E2.55910
G1 X109.401 Y61.383 E2.65674
G1 X109.401 Y138.704 E7.82222
G1 X107.739 Y138.704 E7.93322
G1 X106.775 Y139.261 E8.00759
G1 X106.341 Y138.508 E8.06563
G1 X108.872 Y137.047 E8.26089
G1 X108.872 Y63.100 E13.20096
G1 X108.336 Y63.349 F6000.000
G1 X106.692 Y62.399 E13.32784 F3000.000
G1 X91.256 Y89.135 E15.39021
G1 X90.173 Y88.510 E15.47371
G1 X106.629 Y60.008 E17.67237
G1 X108.083 Y60.847 E17.78451
G1 X109.936 Y60.847 E17.90834
G1 X109.936 Y139.240 E23.14539
G1 X107.883 Y139.240 E23.28258
G1 X106.579 Y139.992 E23.38315
G1 X90.223 Y111.664 E25.56844
G1 X91.306 Y111.038 E25.65195
G1 X106.692 Y137.687 E27.70764
G1 X108.336 Y136.738 E27.83452
G1 X108.336 Y63.409 E32.73327
G1 X108.473 Y62.973 F6000.000
G1 X108.186 Y61.968 F6000.000
G1 X107.759 Y61.838 E32.79652 F3000.000
G1 X106.815 Y61.293 E32.95097
G1 X106.284 Y61.855 F6000.000
G1 X90.849 Y88.590 E37.32361 F3000.000
G1 E35.32361 F2400.00000
G92 E0
G1 X90.899 Y111.583 F6000.000
G1 E2.00000 F2400.00000
G1 X106.284 Y138.232 E6.35847 F3000.000
G1 X106.790 Y138.751 F6000.000
G1 X107.584 Y138.292 E6.41975 F3000.000
G1 X108.186 Y138.119 E6.46161
M104 S190 ; set temperature
G1 Z0.500 F6000.000
G1 X108.915 Y137.582 F6000.000
G1 X108.915 Y138.219 E6.49486 F900.000
G1 X108.372 Y138.219 E6.52324
G1 X108.297 Y137.939 E6.53835
G1 X108.863 Y137.612 E6.57251
G1 X108.915 Y62.504 F6000.000
G1 X108.297 Y62.147 E6.60980 F900.000
G1 X108.372 Y61.868 E6.62491
G1 X108.915 Y61.868 E6.65329
G1 X108.915 Y62.444 E6.68340
G1 X108.729 Y63.122 F6000.000
G1 X106.548 Y61.863 E6.81498 F3600.000
G1 X91.112 Y88.598 E8.42785
G1 X90.710 Y88.366 E8.45213
G1 X106.773 Y60.544 E10.13054
G1 X107.978 Y61.240 E10.20322
G1 X109.544 Y61.240 E10.28504
G1 X109.544 Y138.847 E14.33962
G1 X107.778 Y138.847 E14.43189
G1 X106.723 Y139.456 E14.49552
G1 X90.760 Y111.807 E16.16349
G1 X91.162 Y111.575 E16.18776
G1 X106.548 Y138.224 E17.79541
G1 X108.729 Y136.964 E17.92699
G1 X108.729 Y63.182 E21.78173
G1 X108.236 Y63.407 F6000.000
G1 X106.728 Y62.536 E21.83344 F1800.000
G1 X91.293 Y89.271 E22.75005
G1 X90.037 Y88.546 E22.79310
G1 X106.592 Y59.871 E23.77622
G1 X108.110 Y60.747 E23.82823
G1 X110.036 Y60.747 E23.88544
G1 X110.036 Y139.340 E26.21896
G1 X107.910 Y139.340 E26.28211
G1 X106.542 Y140.129 E26.32898
G1 X90.087 Y111.627 E27.30616
G1 X91.343 Y110.902 E27.34921
G1 X106.728 Y137.551 E28.26285
G1 X108.236 Y136.680 E28.31455
G1 X108.236 Y63.467 E30.48835
G1 X108.373 Y63.031 F6000.000
G1 X109.136 Y62.995 F6000.000
G1 X109.136 Y137.092 E34.35955 F1200.000
G1 X108.031 Y138.160 F6000.000
G1 X107.693 Y138.251 E34.39734 F1200.000
G1 X107.562 Y138.305 E34.41271
G1 X106.706 Y138.799 E34.51947
G1 E32.51947 F2400.00000
G92 E0
G1 X108.015 Y61.986 F6000.000
G1 E2.00000 F2400.00000
G1 X106.731 Y61.244 E2.16022 F1200.000
G1 Z0.700 F6000.000
G1 E0.16022 F2400.00000
G92 E0
G1 X108.915 Y137.582 F6000.000
G1 E2.00000 F2400.00000
G1 X108.915 Y138.219 E2.03324 F900.000
G1 X108.372 Y138.219 E2.06162
G1 X108.297 Y137.939 E2.07674
G1 X108.863 Y137.612 E2.11089
G1 X108.915 Y62.504 F6000.000
G1 X108.297 Y62.147 E2.14818 F900.000
G1 X108.372 Y61.868 E2.16330
G1 X108.915 Y61.868 E2.19168
G1 X108.915 Y62.444 E2.22179
G1 X108.729 Y63.122 F6000.000
G1 X106.548 Y61.863 E2.35337 F3600.000
G1 X91.112 Y88.598 E3.96624
G1 X90.710 Y88.366 E3.99051
G1 X106.773 Y60.544 E5.66893
G1 X107.978 Y61.240 E5.74161
G1 X109.544 Y61.240 E5.82343
G1 X109.544 Y138.847 E9.87801
G1 X107.778 Y138.847 E9.97028
G1 X106.723 Y139.456 E10.03391
G1 X90.760 Y111.807 E11.70188
G1 X91.162 Y111.575 E11.72615
G1 X106.548 Y138.224 E13.33379
G1 X108.729 Y136.964 E13.46538
G1 X108.729 Y63.182 E17.32012
G1 X108.236 Y63.407 F6000.000
G1 X106.728 Y62.536 E17.37183 F1800.000
G1 X91.293 Y89.271 E18.28843
G1 X90.037 Y88.546 E18.33149
G1 X106.592 Y59.871 E19.31460
G1 X108.110 Y60.747 E19.36662
G1 X110.036 Y60.747 E19.42383
G1 X110.036 Y139.340 E21.75734
G1 X107.910 Y139.340 E21.82049
G1 X106.542 Y140.129 E21.86736
G1 X90.087 Y111.627 E22.84454
G1 X91.343 Y110.902 E22.88759
G1 X106.728 Y137.551 E23.80123
G1 X108.236 Y136.680 E23.85294
G1 X108.236 Y63.467 E26.02673
G1 X108.373 Y63.031 F6000.000
G1 X109.136 Y62.995 F6000.000
G1 X109.136 Y137.092 E29.89793 F1200.000
G1 X108.031 Y138.160 F6000.000
G1 X107.693 Y138.251 E29.93573 F1200.000
G1 X107.562 Y138.305 E29.95110
G1 X106.706 Y138.799 E30.05785
G1 E28.05785 F2400.00000
G92 E0
G1 X108.015 Y61.986 F6000.000
G1 E2.00000 F2400.00000
G1 X106.731 Y61.244 E2.16022 F1200.000
M106 S211.65
G1 Z0.900 F6000.000
G1 E0.16022 F2400.00000
G92 E0
G1 X108.915 Y137.582 F6000.000
G1 E2.00000 F2400.00000
G1 X108.915 Y138.219 E2.03324 F900.000
G1 X108.372 Y138.219 E2.06162
G1 X108.297 Y137.939 E2.07674
G1 X108.863 Y137.612 E2.11089
G1 X108.915 Y62.504 F6000.000
G1 X108.297 Y62.147 E2.14818 F900.000
G1 X108.372 Y61.868 E2.16330
G1 X108.915 Y61.868 E2.19168
G1 X108.915 Y62.444 E2.22178
G1 X108.729 Y63.122 F6000.000
G1 X106.548 Y61.863 E2.35337 F3600.000
G1 X91.112 Y88.598 E3.96624
G1 X90.710 Y88.366 E3.99051
G1 X106.773 Y60.544 E5.66893
G1 X107.978 Y61.240 E5.74161
G1 X109.544 Y61.240 E5.82343
G1 X109.544 Y138.847 E9.87801
G1 X107.778 Y138.847 E9.97028
G1 X106.723 Y139.456 E10.03391
G1 X90.760 Y111.807 E11.70188
G1 X91.162 Y111.575 E11.72615
G1 X106.548 Y138.224 E13.33379
G1 X108.729 Y136.964 E13.46538
G1 X108.729 Y63.182 E17.32012
G1 X108.236 Y63.407 F6000.000
G1 X106.728 Y62.536 E17.37183 F1800.000
G1 X91.293 Y89.271 E18.28843
G1 X90.037 Y88.546 E18.33149
G1 X106.592 Y59.871 E19.31460
G1 X108.110 Y60.747 E19.36662
G1 X110.036 Y60.747 E19.42383
G1 X110.036 Y139.340 E21.75734
G1 X107.910 Y139.340 E21.82049
G1 X106.542 Y140.129 E21.86736
G1 X90.087 Y111.627 E22.84454
G1 X91.343 Y110.902 E22.88759
G1 X106.728 Y137.551 E23.80123
G1 X108.236 Y136.680 E23.85294
G1 X108.236 Y63.467 E26.02673
G1 X108.373 Y63.031 F6000.000
G1 X109.136 Y62.995 F6000.000
G1 X109.136 Y137.092 E29.89793 F1200.000
G1 X108.031 Y138.160 F6000.000
G1 X107.693 Y138.251 E29.93573 F1200.000
G1 X107.562 Y138.305 E29.95110
G1 X106.706 Y138.799 E30.05785
G1 E28.05785 F2400.00000
G92 E0
G1 X108.015 Y61.986 F6000.000
G1 E2.00000 F2400.00000
G1 X106.731 Y61.244 E2.16022 F1200.000
G1 Z1.100 F6000.000
G1 E0.16022 F2400.00000
G92 E0
G1 X108.915 Y137.582 F6000.000
G1 E2.00000 F2400.00000
G1 X108.915 Y138.219 E2.03324 F900.000
G1 X108.372 Y138.219 E2.06162
G1 X108.297 Y137.939 E2.07674
G1 X108.863 Y137.612 E2.11089
G1 X108.915 Y62.504 F6000.000
G1 X108.297 Y62.147 E2.14818 F900.000
G1 X108.372 Y61.868 E2.16330
G1 X108.915 Y61.868 E2.19168
G1 X108.915 Y62.444 E2.22179
G1 X108.729 Y63.122 F6000.000
G1 X106.548 Y61.863 E2.35337 F3600.000
G1 X91.112 Y88.598 E3.96624
G1 X90.710 Y88.366 E3.99051
G1 X106.773 Y60.544 E5.66893
G1 X107.978 Y61.240 E5.74161
G1 X109.544 Y61.240 E5.82343
G1 X109.544 Y138.847 E9.87801
G1 X107.778 Y138.847 E9.97028
G1 X106.723 Y139.456 E10.03391
G1 X90.760 Y111.807 E11.70188
G1 X91.162 Y111.575 E11.72615
G1 X106.548 Y138.224 E13.33379
G1 X108.729 Y136.964 E13.46538
G1 X108.729 Y63.182 E17.32012
G1 X108.236 Y63.407 F6000.000
G1 X106.728 Y62.536 E17.37183 F1800.000
G1 X91.293 Y89.271 E18.28843
G1 X90.037 Y88.546 E18.33149
G1 X106.592 Y59.871 E19.31460
G1 X108.110 Y60.747 E19.36662
G1 X110.036 Y60.747 E19.42383
G1 X110.036 Y139.340 E21.75734
G1 X107.910 Y139.340 E21.82049
G1 X106.542 Y140.129 E21.86736
G1 X90.087 Y111.627 E22.84454
G1 X91.343 Y110.902 E22.88759
G1 X106.728 Y137.551 E23.80123
G1 X108.236 Y136.680 E23.85294
G1 X108.236 Y63.467 E26.02673
G1 X108.373 Y63.031 F6000.000
G1 X109.136 Y62.995 F6000.000
G1 X109.136 Y137.092 E29.89793 F1200.000
G1 X108.031 Y138.160 F6000.000
G1 X107.693 Y138.251 E29.93573 F1200.000
G1 X107.562 Y138.305 E29.95110
G1 X106.706 Y138.799 E30.05785
G1 E28.05785 F2400.00000
G92 E0
G1 X108.015 Y61.986 F6000.000
G1 E2.00000 F2400.00000
G1 X106.731 Y61.244 E2.16022 F1200.000
G1 Z1.300 F6000.000
G1 E0.16022 F2400.00000
G92 E0
G1 X108.915 Y137.582 F6000.000
G1 E2.00000 F2400.00000
G1 X108.915 Y138.219 E2.03324 F900.000
G1 X108.372 Y138.219 E2.06163
G1 X108.297 Y137.939 E2.07674
G1 X108.863 Y137.612 E2.11089
G1 X108.915 Y62.504 F6000.000
G1 X108.297 Y62.147 E2.14818 F900.000
G1 X108.372 Y61.868 E2.16330
G1 X108.915 Y61.868 E2.19168
G1 X108.915 Y62.444 E2.22179
G1 X108.729 Y63.122 F6000.000
G1 X106.548 Y61.863 E2.35337 F3600.000
G1 X91.112 Y88.598 E3.96624
G1 X90.710 Y88.366 E3.99051
G1 X106.773 Y60.544 E5.66893
G1 X107.978 Y61.240 E5.74161
G1 X109.544 Y61.240 E5.82343
G1 X109.544 Y138.847 E9.87801
G1 X107.778 Y138.847 E9.97028
G1 X106.723 Y139.456 E10.03391
G1 X90.760 Y111.807 E11.70188
G1 X91.162 Y111.575 E11.72615
G1 X106.548 Y138.224 E13.33379
G1 X108.729 Y136.964 E13.46538
G1 X108.729 Y63.182 E17.32012
G1 X108.236 Y63.407 F6000.000
G1 X106.728 Y62.536 E17.37183 F1800.000
G1 X91.293 Y89.271 E18.28843
G1 X90.037 Y88.546 E18.33149
G1 X106.592 Y59.871 E19.31460
G1 X108.110 Y60.747 E19.36662
G1 X110.036 Y60.747 E19.42383
G1 X110.036 Y139.340 E21.75734
G1 X107.910 Y139.340 E21.82049
G1 X106.542 Y140.129 E21.86736
G1 X90.087 Y111.627 E22.84454
G1 X91.343 Y110.902 E22.88759
G1 X106.728 Y137.551 E23.80123
G1 X108.236 Y136.680 E23.85294
G1 X108.236 Y63.467 E26.02673
G1 X108.373 Y63.031 F6000.000
G1 X109.136 Y62.995 F6000.000
G1 X109.136 Y137.092 E29.89793 F1200.000
G1 X108.031 Y138.160 F6000.000
G1 X107.693 Y138.251 E29.93573 F1200.000
G1 X107.562 Y138.305 E29.95110
G1 X106.706 Y138.799 E30.05785
G1 E28.05785 F2400.00000
G92 E0
G1 X108.015 Y61.986 F6000.000
G1 E2.00000 F2400.00000
G1 X106.731 Y61.244 E2.16022 F1200.000
G1 Z1.500 F6000.000
G1 E0.16022 F2400.00000
G92 E0
G1 X108.915 Y137.582 F6000.000
G1 E2.00000 F2400.00000
G1 X108.915 Y138.219 E2.03324 F900.000
G1 X108.372 Y138.219 E2.06162
G1 X108.297 Y137.939 E2.07674
G1 X108.863 Y137.612 E2.11089
G1 X108.915 Y62.504 F6000.000
G1 X108.297 Y62.147 E2.14818 F900.000
G1 X108.372 Y61.868 E2.16330
G1 X108.915 Y61.868 E2.19168
G1 X108.915 Y62.444 E2.22178
G1 X108.729 Y63.122 F6000.000
G1 X106.548 Y61.863 E2.35337 F3600.000
G1 X91.112 Y88.598 E3.96624
G1 X90.710 Y88.366 E3.99051
G1 X106.773 Y60.544 E5.66893
G1 X107.978 Y61.240 E5.74161
G1 X109.544 Y61.240 E5.82343
G1 X109.544 Y138.847 E9.87801
G1 X107.778 Y138.847 E9.97028
G1 X106.723 Y139.456 E10.03391
G1 X90.760 Y111.807 E11.70188
G1 X91.162 Y111.575 E11.72615
G1 X106.548 Y138.224 E13.33379
G1 X108.729 Y136.964 E13.46538
G1 X108.729 Y63.182 E17.32012
G1 X108.236 Y63.407 F6000.000
G1 X106.728 Y62.536 E17.37183 F1800.000
G1 X91.293 Y89.271 E18.28843
G1 X90.037 Y88.546 E18.33149
G1 X106.592 Y59.871 E19.31460
G1 X108.110 Y60.747 E19.36662
G1 X110.036 Y60.747 E19.42383
G1 X110.036 Y139.340 E21.75734
G1 X107.910 Y139.340 E21.82049
G1 X106.542 Y140.129 E21.86736
G1 X90.087 Y111.627 E22.84454
G1 X91.343 Y110.902 E22.88759
G1 X106.728 Y137.551 E23.80123
G1 X108.236 Y136.680 E23.85294
G1 X108.236 Y63.467 E26.02673
G1 X108.373 Y63.031 F6000.000
G1 X109.136 Y62.995 F6000.000
G1 X109.136 Y137.092 E29.89793 F1200.000
G1 X108.031 Y138.160 F6000.000
G1 X107.693 Y138.251 E29.93573 F1200.000
G1 X107.562 Y138.305 E29.95110
G1 X106.706 Y138.799 E30.05786
G1 E28.05786 F2400.00000
G92 E0
G1 X108.015 Y61.986 F6000.000
G1 E2.00000 F2400.00000
G1 X106.731 Y61.244 E2.16022 F1200.000
G1 Z1.700 F6000.000
G1 E0.16022 F2400.00000
G92 E0
G1 X108.915 Y137.582 F6000.000
G1 E2.00000 F2400.00000
G1 X108.915 Y138.219 E2.03324 F900.000
G1 X108.372 Y138.219 E2.06162
G1 X108.297 Y137.939 E2.07674
G1 X108.863 Y137.612 E2.11089
G1 X108.915 Y62.504 F6000.000
G1 X108.297 Y62.147 E2.14818 F900.000
G1 X108.372 Y61.868 E2.16330
G1 X108.915 Y61.868 E2.19168
G1 X108.915 Y62.444 E2.22179
G1 X108.729 Y63.122 F6000.000
G1 X106.548 Y61.863 E2.35337 F3600.000
G1 X91.112 Y88.598 E3.96624
G1 X90.710 Y88.366 E3.99051
G1 X106.773 Y60.544 E5.66893
G1 X107.978 Y61.240 E5.74161
G1 X109.544 Y61.240 E5.82343
G1 X109.544 Y138.847 E9.87801
G1 X107.778 Y138.847 E9.97028
G1 X106.723 Y139.456 E10.03391
G1 X90.760 Y111.807 E11.70188
G1 X91.162 Y111.575 E11.72615
G1 X106.548 Y138.224 E13.33379
G1 X108.729 Y136.964 E13.46538
G1 X108.729 Y63.182 E17.32012
G1 X108.236 Y63.407 F6000.000
G1 X106.728 Y62.536 E17.37183 F1800.000
G1 X91.293 Y89.271 E18.28843
G1 X90.037 Y88.546 E18.33149
G1 X106.592 Y59.871 E19.31460
G1 X108.110 Y60.747 E19.36662
G1 X110.036 Y60.747 E19.42383
G1 X110.036 Y139.340 E21.75734
G1 X107.910 Y139.340 E21.82049
G1 X106.542 Y140.129 E21.86736
G1 X90.087 Y111.627 E22.84454
G1 X91.343 Y110.902 E22.88759
G1 X106.728 Y137.551 E23.80123
G1 X108.236 Y136.680 E23.85294
G1 X108.236 Y63.467 E26.02673
G1 X108.373 Y63.031 F6000.000
G1 X109.136 Y62.995 F6000.000
G1 X109.136 Y137.092 E29.89793 F1200.000
G1 X108.031 Y138.160 F6000.000
G1 X107.693 Y138.251 E29.93573 F1200.000
G1 X107.562 Y138.305 E29.95110
G1 X106.706 Y138.799 E30.05785
G1 E28.05785 F2400.00000
G92 E0
G1 X108.015 Y61.986 F6000.000
G1 E2.00000 F2400.00000
G1 X106.731 Y61.244 E2.16022 F1200.000
G1 Z1.900 F6000.000
G1 E0.16022 F2400.00000
G92 E0
G1 X108.915 Y137.582 F6000.000
G1 E2.00000 F2400.00000
G1 X108.915 Y138.219 E2.03324 F900.000
G1 X108.372 Y138.219 E2.06162
G1 X108.297 Y137.939 E2.07674
G1 X108.863 Y137.612 E2.11089
G1 X108.915 Y62.504 F6000.000
G1 X108.297 Y62.147 E2.14818 F900.000
G1 X108.372 Y61.868 E2.16330
G1 X108.915 Y61.868 E2.19168
G1 X108.915 Y62.444 E2.22179
G1 X108.729 Y63.122 F6000.000
